X: 1
T: March From Delsbo
M: 2/4
L: 1/8
R: polka
K: Dmaj
A |: d2 d/e/d/c/ | defd | B2G>G | G2zA/G/ |
FAdf | ab/a/ge | d2c/B/c/e/ |[1 d2zA :|[2 d2za ||
|: b/a/^g/a/ b/a/^g/a/ | d'afd | c2A>A | A2za |
g e/g/fd | ge/g/fd | a2 a/^g/a/b/ | a=gfe |
d2 d/e/d/c/ | defd | B2G>G | G2zA/G/ |
FAdf | ab/a/ge | d2c/B/c/e/ |[1 d2 za:|[2 d2z ||
